gama.ui.shared/icons_svg/dark/navigator/navigator.open2.svg

<svg height="25" viewBox="-310.997 -3555.419 25 25" width="25" xmlns="http://www.w3.org/2000/svg"><g fill="none"><path d="m-306.65697-3554.9187h16.32c2.12077 0 3.84 1.7192 3.84 3.84v16.32c0 2.1207-1.71923 3.84-3.84 3.84h-16.32c-2.12077 0-3.84-1.7193-3.84-3.84v-16.32c0-2.1208 1.71923-3.84 3.84-3.84z" fill="#666"/><path d="m-306.65697-3554.9187h16.32c2.12077 0 3.84 1.7192 3.84 3.84v16.32c0 2.1207-1.71923 3.84-3.84 3.84h-16.32c-2.12077 0-3.84-1.7193-3.84-3.84v-16.32c0-2.1208 1.71923-3.84 3.84-3.84z" stroke="#fff" stroke-linecap="round" stroke-linejoin="round" stroke-width=".25"/><path d="m-292.28703-3545.318c-.2209 0-.39997-.1793-.39997-.4v-1.2h-2.79987c-.2209 0-.39998-.179-.39998-.4v-2.8h-6.79965c-.6627 0-1.19995.5373-1.19995 1.2v11.9994c0 .6626.53725 1.1999 1.19995 1.1999h8.79955c.66271 0 1.19995-.5373 1.19995-1.1999v-1.5999c0-.2209.17907-.4.39997-.4.22091 0 .39998.1791.39998.4v1.5999c0 1.1046-.89538 1.9999-1.9999 1.9999h-8.79955c-1.10452 0-1.9999-.8953-1.9999-1.9999v-11.9994c0-1.1045.89538-2 1.9999-2h7.17725c.10619-.0066.21673.0288.30521.1173l3.19984 3.1997c.08848.0886.1239.199.11715.3053v1.5777c0 .2207-.17907.4-.39998.4zm-.96563 3.1997h-6.24511c-.2209 0-.39998-.1791-.39998-.4s.17908-.4.39998-.4h6.24511l-1.71708-1.7171c-.1562-.1562-.1562-.4096 0-.5656.15621-.1562.40946-.1562.56566 0l2.39988 2.4c.1562.156.1562.4093 0 .5655l-2.39988 2.3999c-.1562.1562-.40945.1562-.56566 0-.1562-.1564-.1562-.4094 0-.5657zm-1.83424-7.434v1.8343h1.83424z" fill="#c0e0ff"/></g></svg>

<?xml version="1.0" encoding="UTF-8" standalone="no"?>
<!DOCTYPE svg PUBLIC "-//W3C//DTD SVG 1.1//EN" "http://www.w3.org/Graphics/SVG/1.1/DTD/svg11.dtd">
<svg xmlns="http://www.w3.org/2000/svg" xmlns:xl="http://www.w3.org/1999/xlink" version="1.1" xmlns:dc="http://purl.org/dc/elements/1.1/" viewBox="-310.99697 -3555.4187 25 25" width="25" height="25">
  <defs/>
  <g id="SOURCES" stroke-opacity="1" fill="none" stroke="none" fill-opacity="1" stroke-dasharray="none">
    <title>SOURCES</title>
    <g id="SOURCES_Dark">
      <title>Dark</title>
      <g id="Graphic_11721">
        <title>views/view.other</title>
        <path d="M -306.65697 -3554.9187 L -290.33697 -3554.9187 C -288.2162 -3554.9187 -286.49697 -3553.1995 -286.49697 -3551.0787 L -286.49697 -3534.7587 C -286.49697 -3532.638 -288.2162 -3530.9187 -290.33697 -3530.9187 L -306.65697 -3530.9187 C -308.77774 -3530.9187 -310.49697 -3532.638 -310.49697 -3534.7587 L -310.49697 -3551.0787 C -310.49697 -3553.1995 -308.77774 -3554.9187 -306.65697 -3554.9187 Z" fill="#666"/>
        <path d="M -306.65697 -3554.9187 L -290.33697 -3554.9187 C -288.2162 -3554.9187 -286.49697 -3553.1995 -286.49697 -3551.0787 L -286.49697 -3534.7587 C -286.49697 -3532.638 -288.2162 -3530.9187 -290.33697 -3530.9187 L -306.65697 -3530.9187 C -308.77774 -3530.9187 -310.49697 -3532.638 -310.49697 -3534.7587 L -310.49697 -3551.0787 C -310.49697 -3553.1995 -308.77774 -3554.9187 -306.65697 -3554.9187 Z" stroke="white" stroke-linecap="round" stroke-linejoin="round" stroke-width=".25"/>
      </g>
      <g id="Graphic_11720">
        <path d="M -292.28703 -3545.318 C -292.50793 -3545.318 -292.687 -3545.4973 -292.687 -3545.718 L -292.687 -3546.918 L -295.48687 -3546.918 C -295.70777 -3546.918 -295.88685 -3547.097 -295.88685 -3547.318 L -295.88685 -3550.118 L -302.6865 -3550.118 C -303.3492 -3550.118 -303.88645 -3549.5807 -303.88645 -3548.918 L -303.88645 -3536.9186 C -303.88645 -3536.256 -303.3492 -3535.7187 -302.6865 -3535.7187 L -293.88695 -3535.7187 C -293.22424 -3535.7187 -292.687 -3536.256 -292.687 -3536.9186 L -292.687 -3538.5185 C -292.687 -3538.7394 -292.50793 -3538.9185 -292.28703 -3538.9185 C -292.06612 -3538.9185 -291.88705 -3538.7394 -291.88705 -3538.5185 L -291.88705 -3536.9186 C -291.88705 -3535.814 -292.78243 -3534.9187 -293.88695 -3534.9187 L -302.6865 -3534.9187 C -303.79102 -3534.9187 -304.6864 -3535.814 -304.6864 -3536.9186 L -304.6864 -3548.918 C -304.6864 -3550.0225 -303.79102 -3550.918 -302.6865 -3550.918 L -295.50925 -3550.918 C -295.40306 -3550.9246 -295.29252 -3550.8892 -295.20404 -3550.8007 L -292.0042 -3547.601 C -291.91572 -3547.5124 -291.8803 -3547.402 -291.88705 -3547.2957 L -291.88705 -3545.718 C -291.88705 -3545.4973 -292.06612 -3545.318 -292.28703 -3545.318 Z M -293.25266 -3542.1183 L -299.49777 -3542.1183 C -299.71867 -3542.1183 -299.89775 -3542.2974 -299.89775 -3542.5183 C -299.89775 -3542.7392 -299.71867 -3542.9183 -299.49777 -3542.9183 L -293.25266 -3542.9183 L -294.96974 -3544.6354 C -295.12594 -3544.7916 -295.12594 -3545.045 -294.96974 -3545.201 C -294.81353 -3545.3572 -294.56028 -3545.3572 -294.40408 -3545.201 L -292.0042 -3542.801 C -291.848 -3542.645 -291.848 -3542.3917 -292.0042 -3542.2355 L -294.40408 -3539.8356 C -294.56028 -3539.6794 -294.81353 -3539.6794 -294.96974 -3539.8356 C -295.12594 -3539.992 -295.12594 -3540.245 -294.96974 -3540.4013 Z M -295.0869 -3549.5523 L -295.0869 -3547.718 L -293.25266 -3547.718 Z" fill="#c0e0ff"/>
      </g>
    </g>
  </g>
</svg>
